public/cloud-icons/azure/compute/hpc-workbenche.svg

<?xml version="1.0" encoding="UTF-8" standalone="no"?>
<!-- Generated by Microsoft Visio, SVG Export HPC Workbenche.svg Page-1 -->

<svg
   xmlns:dc="http://purl.org/dc/elements/1.1/"
   xmlns:cc="http://creativecommons.org/ns#"
   xmlns:rdf="http://www.w3.org/1999/02/22-rdf-syntax-ns#"
   xmlns:svg="http://www.w3.org/2000/svg"
   xmlns="http://www.w3.org/2000/svg"
   xmlns:sodipodi="http://sodipodi.sourceforge.net/DTD/sodipodi-0.dtd"
   xmlns:inkscape="http://www.inkscape.org/namespaces/inkscape"
   width="45.350014"
   height="56.688129"
   viewBox="0 0 45.350015 56.68813"
   xml:space="preserve"
   class="st8"
   version="1.1"
   id="svg82"
   sodipodi:docname="HPC Workbenche.svg"
   style="font-size:12px;overflow:visible;color-interpolation-filters:sRGB;fill:none;fill-rule:evenodd;stroke-linecap:square;stroke-miterlimit:3"
   inkscape:version="0.92.5 (2060ec1f9f, 2020-04-08)"><metadata
   id="metadata86"><rdf:RDF><cc:Work
       rdf:about=""><dc:format>image/svg+xml</dc:format><dc:type
         rdf:resource="http://purl.org/dc/dcmitype/StillImage" /></cc:Work></rdf:RDF></metadata><sodipodi:namedview
   pagecolor="#ffffff"
   bordercolor="#666666"
   borderopacity="1"
   objecttolerance="10"
   gridtolerance="10"
   guidetolerance="10"
   inkscape:pageopacity="0"
   inkscape:pageshadow="2"
   inkscape:window-width="640"
   inkscape:window-height="480"
   id="namedview84"
   showgrid="false"
   inkscape:zoom="1.8924055"
   inkscape:cx="22.677004"
   inkscape:cy="28.337929"
   inkscape:window-x="0"
   inkscape:window-y="0"
   inkscape:window-maximized="0"
   inkscape:current-layer="svg82" />
	<style
   type="text/css"
   id="style2">
	<![CDATA[
		.st1 {fill:#1b93eb;stroke:none;stroke-linecap:butt;stroke-width:34}
		.st2 {fill:url(#grad0-8);stroke:none;stroke-linecap:butt;stroke-width:34}
		.st3 {fill:url(#grad0-12);stroke:none;stroke-linecap:butt;stroke-width:34}
		.st4 {fill:#198ab3;stroke:none;stroke-linecap:butt;stroke-width:34}
		.st5 {fill:url(#grad0-18);stroke:none;stroke-linecap:butt;stroke-width:34}
		.st6 {fill:#ffffff;fill-opacity:0.8;stroke:none;stroke-linecap:butt;stroke-width:34}
		.st7 {fill:url(#grad0-24);stroke:none;stroke-linecap:butt;stroke-width:34}
		.st8 {fill:none;fill-rule:evenodd;font-size:12px;overflow:visible;stroke-linecap:square;stroke-miterlimit:3}
	]]>
	</style>

	<defs
   id="Patterns_And_Gradients">
		<linearGradient
   id="grad0-8"
   x1="-3.3359012e-06"
   y1="65.05609"
   x2="46.495889"
   y2="65.05609"
   gradientTransform="scale(0.89448769,1.1179584)"
   gradientUnits="userSpaceOnUse">
			<stop
   offset="0"
   stop-color="#6bb9f2"
   stop-opacity="1"
   id="stop4" />
			<stop
   offset="1"
   stop-color="#1b93eb"
   stop-opacity="1"
   id="stop6" />
		</linearGradient>
		<linearGradient
   id="grad0-12"
   x1="-0.0023417454"
   y1="88.314827"
   x2="34.193871"
   y2="88.314827"
   gradientTransform="scale(0.98236738,1.0179491)"
   gradientUnits="userSpaceOnUse">
			<stop
   offset="0"
   stop-color="#e6e6e6"
   stop-opacity="1"
   id="stop9" />
			<stop
   offset="1"
   stop-color="#ffffff"
   stop-opacity="1"
   id="stop11" />
		</linearGradient>
		<linearGradient
   id="grad0-18"
   x1="-0.0051283967"
   y1="147.59897"
   x2="10.749912"
   y2="147.59897"
   gradientTransform="scale(1.2697778,0.78753936)"
   gradientUnits="userSpaceOnUse">
			<stop
   offset="0.225"
   stop-color="#32d4f5"
   stop-opacity="1"
   id="stop14" />
			<stop
   offset="0.475"
   stop-color="#31d1f3"
   stop-opacity="1"
   id="stop16" />
			<stop
   offset="0.635"
   stop-color="#2ec9eb"
   stop-opacity="1"
   id="stop18" />
			<stop
   offset="1"
   stop-color="#198ab3"
   stop-opacity="1"
   id="stop20" />
			<stop
   offset="1"
   stop-color="#198ab3"
   stop-opacity="1"
   id="stop22" />
		</linearGradient>
		<linearGradient
   id="grad0-24"
   x1="-4.4913219e-16"
   y1="115.55745"
   x2="7.7506059"
   y2="115.55745"
   gradientTransform="scale(0.98877172,1.0113558)"
   gradientUnits="userSpaceOnUse">
			<stop
   offset="0.225"
   stop-color="#32d4f5"
   stop-opacity="1"
   id="stop25" />
			<stop
   offset="0.475"
   stop-color="#31d1f3"
   stop-opacity="1"
   id="stop27" />
			<stop
   offset="0.635"
   stop-color="#2ec9eb"
   stop-opacity="1"
   id="stop29" />
			<stop
   offset="1"
   stop-color="#198ab3"
   stop-opacity="1"
   id="stop31" />
			<stop
   offset="1"
   stop-color="#198ab3"
   stop-opacity="1"
   id="stop33" />
		</linearGradient>
	</defs>
	<g
   id="g80"
   transform="translate(-33.999994,-34.0043)">
		<title
   id="title37">Page-1</title>
		<g
   id="group12058-1"
   transform="translate(34,-34.0157)">
			<title
   id="title39">HPC Workbenche.12058</title>
			<g
   id="group12059-2">
				<title
   id="title41">Sheet.12059</title>
				<g
   id="shape12060-3">
					<title
   id="title43">Sheet.12060</title>
					<path
   d="m 45.35,94.49 c 0,15.24 -18.01,27.51 -21.93,30 a 1.40792,1.44007 0 0 1 -1.49,0 C 18.01,122 0,109.74 0,94.49 V 76.16 A 1.42359,1.45611 0 0 1 1.39,74.7 c 14.01,-0.39 10.79,-6.68 21.29,-6.68 10.5,0 7.27,6.29 21.28,6.67 a 1.42359,1.45611 0 0 1 1.39,1.46 z"
   class="st1"
   id="path45"
   inkscape:connector-curvature="0"
   style="fill:#1b93eb;stroke:none;stroke-width:34;stroke-linecap:butt" />
				</g>
				<g
   id="shape12061-5"
   transform="translate(1.8814,-2.35109)">
					<title
   id="title48">Sheet.12061</title>
					<path
   d="m 41.59,96.99 c 0,13.98 -16.52,25.24 -20.11,27.52 a 1.29503,1.32461 0 0 1 -1.37,0 C 16.52,122.23 0,110.97 0,96.99 V 80.17 a 1.30757,1.33744 0 0 1 1.28,-1.34 c 12.84,-0.35 9.89,-6.1 19.52,-6.1 9.63,0 6.67,5.78 19.52,6.13 a 1.30757,1.33744 0 0 1 1.27,1.33 z"
   class="st2"
   id="path50"
   inkscape:connector-curvature="0"
   style="fill:url(#grad0-8);stroke:none;stroke-width:34;stroke-linecap:butt" />
				</g>
				<g
   id="shape12062-9"
   transform="translate(5.87625,-13.0385)">
					<title
   id="title53">Sheet.12062</title>
					<path
   d="M 23.01,95.74 20.73,94.78 A 0.699254,0.715226 0 0 1 20.334906,94.359845 L 18.93,90.38 A 0.705526,0.72164 -180 0 0 18.268374,89.902114 L 15.32,89.9 a 0.705526,0.72164 -180 0 0 -0.677305,0.522788 L 13.54,94.33 a 0.70239,0.718433 0 0 1 -0.413908,0.468264 L 11.1,95.61 a 0.70239,0.718433 0 0 1 -0.570692,0 L 6.65,93.72 A 0.708661,0.724847 -180 0 0 5.850404,93.861121 L 3.77,95.97 A 0.705526,0.72164 -180 0 0 3.625759,96.787859 L 5.49,100.87 a 0.711797,0.728055 0 0 1 0.02195,0.51317 L 4.81,103.63 a 0.714933,0.731262 0 0 1 -0.457808,0.46826 L 0.49,105.38 a 0.70239,0.718433 -180 0 0 -0.4923,0.68636 L 0,109.18 a 0.708661,0.724847 -180 0 0 0.511114,0.69278 L 4.31,110.99 a 0.708661,0.724847 0 0 1 0.464079,0.43619 L 5.49,113.38 a 0.70239,0.718433 0 0 1 -0.02195,0.55807 L 3.73,117.79 a 0.708661,0.724847 -180 0 0 0.134834,0.80824 L 5.96,120.79 a 0.708661,0.724847 -180 0 0 0.81841,0.14112 L 6.88,120.88 l 3.53,-1.86 a 0.699254,0.715226 0 0 1 0.58637,-0.0257 L 13.04,119.84 a 0.696119,0.712018 0 0 1 0.401366,0.42336 L 14.84,124.23 a 0.705526,0.72164 -180 0 0 0.664762,0.47468 L 18.28,124.71 a 0.70239,0.718433 -180 0 0 0.677305,-0.51958 L 20.06,120.3 a 0.714933,0.731262 0 0 1 0.413908,-0.46826 L 22.5,118.99 a 0.686712,0.702396 0 0 1 0.561285,0.016 L 26.76,120.77 a 0.70239,0.718433 -180 0 0 0.799596,-0.14112 L 29.52,118.63 a 0.708661,0.724847 -180 0 0 0.11602,-0.86276 L 29.6,117.68 28.09,113.87 a 0.705526,0.72164 0 0 1 0,-0.54203 L 28.93,111.2 a 0.708661,0.724847 0 0 1 0.413908,-0.40733 L 33.13,109.36 a 0.708661,0.724847 -180 0 0 0.460943,-0.67674 L 33.59,105.85 a 0.708661,0.724847 -180 0 0 -0.517386,-0.69598 L 29.31,104.08 a 0.699254,0.715226 0 0 1 -0.479758,-0.46506 L 28.09,101.33 a 0.696119,0.712018 0 0 1 0.03136,-0.53241 L 29.86,96.95 A 0.70239,0.718433 -180 0 0 29.718895,96.135348 L 27.82,94.19 a 0.877988,0.898041 -180 0 0 -0.981465,-0.182816 z"
   class="st3"
   id="path55"
   inkscape:connector-curvature="0"
   style="fill:url(#grad0-12);stroke:none;stroke-width:34;stroke-linecap:butt" />
				</g>
				<g
   id="shape12063-13"
   transform="translate(22.9907,-24.806)">
					<title
   id="title58">Sheet.12063</title>
					<path
   d="M 9.13,123.79 A 4.90732,5.01941 -180 0 0 5.96,119.24 2.56184,2.62036 -180 1 0 3.14,119.22 4.54359,4.64736 -180 0 0 0,123.79 0.815274,0.833895 -180 0 0 0.727475,124.70729 L 8.33,124.71 a 0.815274,0.833895 -180 0 0 0.815274,-0.83069 0.507979,0.519581 -180 0 0 -0.02195,-0.0866 z"
   class="st4"
   id="path60"
   inkscape:connector-curvature="0"
   style="fill:#198ab3;stroke:none;stroke-width:34;stroke-linecap:butt" />
				</g>
				<g
   id="shape12064-15"
   transform="translate(13.6966,-23.2152)">
					<title
   id="title63">Sheet.12064</title>
					<path
   d="m 12.43,124.71 a 1.2135,1.24122 -180 0 0 1.22,-1.24 v -0.15 a 6.93297,7.09132 -180 0 0 -6.82,-7.08 c -4.22,0 -6.41,2.69 -6.83,7.09 a 1.21978,1.24764 -180 0 0 1.09,1.37 h 0.12 z"
   class="st5"
   id="path65"
   inkscape:connector-curvature="0"
   style="fill:url(#grad0-18);stroke:none;stroke-width:34;stroke-linecap:butt" />
				</g>
				<g
   id="shape12065-19"
   transform="translate(18.5224,-25.9029)">
					<title
   id="title68">Sheet.12065</title>
					<path
   d="M 2.07,119.86 A 3.80357,3.89044 0 0 1 0,119.22 l 2.05,5.49 2.04,-5.45 a 3.82238,3.90969 0 0 1 -2.02,0.6 z"
   class="st6"
   id="path70"
   inkscape:connector-curvature="0"
   style="fill:#ffffff;fill-opacity:0.8;stroke:none;stroke-width:34;stroke-linecap:butt" />
				</g>
				<g
   id="shape12066-21"
   transform="translate(16.7351,-30.7491)">
					<title
   id="title73">Sheet.12066</title>
					<ellipse
   cx="3.83179"
   cy="120.789"
   rx="3.83179"
   ry="3.9193101"
   class="st7"
   id="ellipse75"
   style="fill:url(#grad0-24);stroke:none;stroke-width:34;stroke-linecap:butt" />
				</g>
			</g>
		</g>
	</g>
</svg>

<svg xmlns="http://www.w3.org/2000/svg" xml:space="preserve" width="45.35" height="56.688" style="font-size:12px;overflow:visible;color-interpolation-filters:sRGB;fill-rule:evenodd;stroke-linecap:square;stroke-miterlimit:3" viewBox="0 0 45.35 56.688"><defs><linearGradient id="a" x1="0" x2="46.496" y1="65.056" y2="65.056" gradientTransform="scale(.89449 1.11796)" gradientUnits="userSpaceOnUse"><stop offset="0" stop-color="#6bb9f2"/><stop offset="1" stop-color="#1b93eb"/></linearGradient><linearGradient id="b" x1="-.002" x2="34.194" y1="88.315" y2="88.315" gradientTransform="scale(.98237 1.01795)" gradientUnits="userSpaceOnUse"><stop offset="0" stop-color="#e6e6e6"/><stop offset="1" stop-color="#fff"/></linearGradient><linearGradient id="c" x1="-.005" x2="10.75" y1="147.599" y2="147.599" gradientTransform="scale(1.26978 .78754)" gradientUnits="userSpaceOnUse"><stop offset=".225" stop-color="#32d4f5"/><stop offset=".475" stop-color="#31d1f3"/><stop offset=".635" stop-color="#2ec9eb"/><stop offset="1" stop-color="#198ab3"/><stop offset="1" stop-color="#198ab3"/></linearGradient><linearGradient id="d" x1="0" x2="7.751" y1="115.557" y2="115.557" gradientTransform="scale(.98877 1.01136)" gradientUnits="userSpaceOnUse"><stop offset=".225" stop-color="#32d4f5"/><stop offset=".475" stop-color="#31d1f3"/><stop offset=".635" stop-color="#2ec9eb"/><stop offset="1" stop-color="#198ab3"/><stop offset="1" stop-color="#198ab3"/></linearGradient></defs><g transform="translate(-34 -34.004)"><title>Page-1</title><g transform="translate(34 -34.016)"><title>HPC Workbenche.12058</title><title>Sheet.12059</title><title>Sheet.12060</title><path d="M45.35 94.49c0 15.24-18.01 27.51-21.93 30a1.408 1.44 0 0 1-1.49 0C18.01 122 0 109.74 0 94.49V76.16a1.424 1.456 0 0 1 1.39-1.46c14.01-.39 10.79-6.68 21.29-6.68s7.27 6.29 21.28 6.67a1.424 1.456 0 0 1 1.39 1.46z" style="fill:#1b93eb;stroke:none;stroke-width:34;stroke-linecap:butt"/><g transform="translate(1.881 -2.351)"><title>Sheet.12061</title><path d="M41.59 96.99c0 13.98-16.52 25.24-20.11 27.52a1.295 1.325 0 0 1-1.37 0C16.52 122.23 0 110.97 0 96.99V80.17a1.308 1.337 0 0 1 1.28-1.34c12.84-.35 9.89-6.1 19.52-6.1s6.67 5.78 19.52 6.13a1.308 1.337 0 0 1 1.27 1.33z" style="fill:url(#a);stroke:none;stroke-width:34;stroke-linecap:butt"/></g><g transform="translate(5.876 -13.039)"><title>Sheet.12062</title><path d="m23.01 95.74-2.28-.96a.7.715 0 0 1-.395-.42l-1.405-3.98a.706.722-180 0 0-.662-.478L15.32 89.9a.706.722-180 0 0-.677.523L13.54 94.33a.702.718 0 0 1-.414.468l-2.026.812a.702.718 0 0 1-.57 0l-3.88-1.89a.709.725-180 0 0-.8.141L3.77 95.97a.706.722-180 0 0-.144.818l1.864 4.082a.712.728 0 0 1 .022.513l-.702 2.247a.715.731 0 0 1-.458.468L.49 105.38a.702.718-180 0 0-.492.686L0 109.18a.709.725-180 0 0 .511.693l3.799 1.117a.709.725 0 0 1 .464.436l.716 1.954a.702.718 0 0 1-.022.558L3.73 117.79a.709.725-180 0 0 .135.808l2.095 2.192a.709.725-180 0 0 .818.141l.102-.051 3.53-1.86a.7.715 0 0 1 .586-.026l2.044.846a.696.712 0 0 1 .401.423l1.399 3.967a.706.722-180 0 0 .665.475l2.775.005a.702.718-180 0 0 .677-.52l1.103-3.89a.715.731 0 0 1 .414-.468l2.026-.842a.687.702 0 0 1 .561.016l3.699 1.764a.702.718-180 0 0 .8-.141l1.96-1.999a.709.725-180 0 0 .116-.863l-.036-.087-1.51-3.81a.706.722 0 0 1 0-.542l.84-2.128a.709.725 0 0 1 .414-.407l3.786-1.433a.709.725-180 0 0 .46-.677v-2.833a.709.725-180 0 0-.517-.696l-3.763-1.074a.7.715 0 0 1-.48-.465l-.74-2.285a.696.712 0 0 1 .031-.532l1.739-3.848a.702.718-180 0 0-.141-.815L27.82 94.19a.878.898-180 0 0-.981-.183z" style="fill:url(#b);stroke:none;stroke-width:34;stroke-linecap:butt"/></g><g transform="translate(22.99 -24.806)"><title>Sheet.12063</title><path d="M9.13 123.79a4.907 5.02-180 0 0-3.17-4.55 2.562 2.62-180 1 0-2.82-.02A4.544 4.647-180 0 0 0 123.79a.815.834-180 0 0 .727.917l7.603.003a.815.834-180 0 0 .815-.83.508.52-180 0 0-.022-.087z" style="fill:#198ab3;stroke:none;stroke-width:34;stroke-linecap:butt"/></g><g transform="translate(13.697 -23.215)"><title>Sheet.12064</title><path d="M12.43 124.71a1.214 1.241-180 0 0 1.22-1.24v-.15a6.933 7.091-180 0 0-6.82-7.08c-4.22 0-6.41 2.69-6.83 7.09a1.22 1.248-180 0 0 1.09 1.37h.12z" style="fill:url(#c);stroke:none;stroke-width:34;stroke-linecap:butt"/></g><g transform="translate(18.522 -25.903)"><title>Sheet.12065</title><path d="M2.07 119.86a3.804 3.89 0 0 1-2.07-.64l2.05 5.49 2.04-5.45a3.822 3.91 0 0 1-2.02.6" style="fill:#fff;fill-opacity:.8;stroke:none;stroke-width:34;stroke-linecap:butt"/></g><g transform="translate(16.735 -30.75)"><title>Sheet.12066</title><ellipse cx="3.832" cy="120.789" rx="3.832" ry="3.919" style="fill:url(#d);stroke:none;stroke-width:34;stroke-linecap:butt"/></g></g></g></svg>
